public/logo/main-tr.svg

<svg xmlns="http://www.w3.org/2000/svg" width="390" height="224" fill="none"><path fill="#fff" d="M63.168 137.344v1.92c-2.048.256-3.584.8-4.608 1.632-1.024.768-1.728 2.016-2.112 3.744-.32 1.728-.48 4.16-.48 7.296v53.568a28.917 28.917 0 0 0-2.4-.096c-.768 0-1.6.032-2.496.096l-41.664-52.8v36.864c0 3.52.192 6.24.576 8.16.384 1.856 1.216 3.2 2.496 4.032 1.344.768 3.424 1.312 6.24 1.632v1.92c-1.216-.128-2.816-.192-4.8-.192-1.984-.064-3.84-.096-5.568-.096-1.472 0-2.976.032-4.512.096-1.536 0-2.816.064-3.84.192v-1.92c2.048-.32 3.584-.864 4.608-1.632 1.024-.768 1.696-2.016 2.016-3.744.384-1.792.576-4.224.576-7.296v-43.2c0-2.368-.192-4.096-.576-5.184-.32-1.152-1.024-1.92-2.112-2.304-1.024-.448-2.528-.704-4.512-.768v-1.92c1.024.064 2.304.128 3.84.192s3.04.096 4.512.096c1.536 0 3.008-.032 4.416-.096 1.408-.064 2.688-.128 3.84-.192l37.152 45.792v-30.048c0-3.52-.192-6.208-.576-8.064-.384-1.92-1.248-3.296-2.592-4.128-1.28-.832-3.328-1.376-6.144-1.632v-1.92c1.216.064 2.816.128 4.8.192s3.84.096 5.568.096c1.536 0 3.04-.032 4.512-.096 1.536-.064 2.816-.128 3.84-.192Zm36.863-.192 23.327 60.096c.896 2.304 1.889 3.904 2.977 4.8 1.152.832 2.176 1.28 3.072 1.344v1.92c-1.92-.128-4.192-.192-6.816-.192a311.24 311.24 0 0 0-7.777-.096c-2.944 0-5.727.032-8.351.096-2.624 0-4.704.064-6.24.192v-1.92c3.264-.128 5.312-.672 6.144-1.632.896-1.024.704-3.168-.576-6.432l-16.32-44.64 1.727-2.496-14.591 38.016c-1.409 3.52-2.272 6.4-2.593 8.64-.255 2.24-.096 3.968.48 5.184.64 1.216 1.632 2.08 2.977 2.592 1.407.448 3.072.704 4.992.768v1.92a100.134 100.134 0 0 0-6.048-.192 175.86 175.86 0 0 0-5.857-.096 80.86 80.86 0 0 0-4.032.096c-1.215 0-2.303.064-3.263.192v-1.92c1.343-.256 2.72-1.12 4.128-2.592 1.407-1.472 2.783-3.968 4.127-7.488l21.888-56.16c1.024.064 2.112.096 3.264.096 1.216 0 2.337-.032 3.361-.096Zm6.72 40.512v1.92H78.142l.96-1.92h27.649Zm23.372-40.32c1.6.064 3.744.128 6.432.192a351 351 0 0 0 8.16.096c3.072 0 6.048-.032 8.928-.096 2.88-.064 4.928-.096 6.144-.096 5.952 0 10.88.672 14.784 2.016 3.968 1.28 6.912 3.168 8.832 5.664 1.984 2.496 2.976 5.504 2.976 9.024 0 2.176-.448 4.384-1.344 6.624-.896 2.176-2.432 4.224-4.608 6.144-2.112 1.856-5.024 3.36-8.736 4.512-3.712 1.088-8.384 1.632-14.016 1.632h-9.216v-1.92h8.256c3.776 0 6.624-.704 8.544-2.112 1.984-1.472 3.328-3.392 4.032-5.76.768-2.432 1.152-5.12 1.152-8.064 0-5.056-.896-8.96-2.688-11.712-1.792-2.816-4.864-4.224-9.216-4.224-2.496 0-4.128.544-4.896 1.632-.704 1.088-1.056 3.296-1.056 6.624v47.616c0 2.304.16 4.032.48 5.184.384 1.152 1.088 1.92 2.112 2.304 1.024.384 2.56.64 4.608.768v1.92c-1.728-.128-3.904-.192-6.528-.192-2.624-.064-5.28-.096-7.968-.096-3.072 0-5.984.032-8.736.096-2.688 0-4.832.064-6.432.192v-1.92c2.048-.128 3.584-.384 4.608-.768 1.024-.384 1.696-1.152 2.016-2.304.384-1.152.576-2.88.576-5.184V147.52c0-2.368-.192-4.096-.576-5.184-.32-1.152-1.024-1.92-2.112-2.304-1.024-.448-2.528-.704-4.512-.768v-1.92Zm18.144 34.08c2.752.064 5.12.192 7.104.384 2.048.192 3.84.384 5.376.576 1.536.128 2.912.224 4.128.288 5.824.512 10.112 1.76 12.864 3.744 2.816 1.984 4.64 4.96 5.472 8.928l2.208 9.888c.576 2.56 1.184 4.352 1.824 5.376.64 1.024 1.568 1.536 2.784 1.536.832-.064 1.504-.256 2.016-.576.576-.384 1.184-.928 1.824-1.632l1.344 1.152c-1.728 1.984-3.584 3.392-5.568 4.224-1.984.896-4.384 1.344-7.2 1.344-3.456 0-6.304-.736-8.544-2.208-2.24-1.472-3.712-4.192-4.416-8.16l-1.728-9.6c-.448-2.688-.992-5.024-1.632-7.008-.64-2.048-1.536-3.648-2.688-4.8-1.088-1.216-2.624-1.824-4.608-1.824h-10.368l-.192-1.632Zm106.411-34.08c-.256 3.264-.448 6.4-.576 9.408a350.057 350.057 0 0 0-.096 6.912c0 1.408.032 2.752.096 4.032.064 1.28.128 2.368.192 3.264h-2.208c-1.024-5.376-2.336-9.632-3.936-12.768-1.536-3.136-3.392-5.344-5.568-6.624-2.176-1.344-4.736-2.016-7.68-2.016h-2.208v54.816c0 2.56.256 4.48.768 5.76.576 1.28 1.6 2.144 3.072 2.592 1.472.384 3.616.608 6.432.672v1.92c-1.984-.064-4.64-.128-7.968-.192a524.814 524.814 0 0 0-10.272-.096c-3.52 0-6.848.032-9.984.096s-5.664.128-7.584.192v-1.92c2.88-.064 5.056-.288 6.528-.672 1.472-.448 2.464-1.312 2.976-2.592s.768-3.2.768-5.76v-54.816h-2.112c-2.944 0-5.504.672-7.68 2.016-2.176 1.28-4.032 3.488-5.568 6.624-1.536 3.072-2.88 7.328-4.032 12.768h-2.208c.128-.896.192-1.984.192-3.264a80.86 80.86 0 0 0 .096-4.032c0-1.6-.064-3.904-.192-6.912a165.484 165.484 0 0 0-.48-9.408c2.944.064 6.144.128 9.6.192 3.52.064 7.04.096 10.56.096h19.008c3.52 0 7.04-.032 10.56-.096 3.52-.064 6.688-.128 9.504-.192Zm32.29-.192 23.328 60.096c.896 2.304 1.888 3.904 2.976 4.8 1.152.832 2.176 1.28 3.072 1.344v1.92c-1.92-.128-4.192-.192-6.816-.192a311.16 311.16 0 0 0-7.776-.096c-2.944 0-5.728.032-8.352.096-2.624 0-4.704.064-6.24.192v-1.92c3.264-.128 5.312-.672 6.144-1.632.896-1.024.704-3.168-.576-6.432l-16.32-44.64 1.728-2.496-14.592 38.016c-1.408 3.52-2.272 6.4-2.592 8.64-.256 2.24-.096 3.968.48 5.184.64 1.216 1.632 2.08 2.976 2.592 1.408.448 3.072.704 4.992.768v1.92a100.134 100.134 0 0 0-6.048-.192c-1.92-.064-3.872-.096-5.856-.096a80.86 80.86 0 0 0-4.032.096c-1.216 0-2.304.064-3.264.192v-1.92c1.344-.256 2.72-1.12 4.128-2.592s2.784-3.968 4.128-7.488l21.888-56.16c1.024.064 2.112.096 3.264.096a54.14 54.14 0 0 0 3.36-.096Zm6.72 40.512v1.92H265.08l.96-1.92h27.648Zm53.593 28.673c-4.563-.553-8.692-1.823-12.387-3.809-5.056-2.752-8.992-6.72-11.808-11.904-2.816-5.184-4.224-11.424-4.224-18.72 0-7.168 1.44-13.44 4.32-18.816 2.944-5.376 6.944-9.568 12-12.576 5.12-3.008 11.008-4.512 17.664-4.512 6.784 0 12.704 1.376 17.76 4.128 5.12 2.752 9.088 6.72 11.904 11.904 2.816 5.12 4.224 11.36 4.224 18.72 0 7.168-1.44 13.44-4.32 18.816-2.88 5.376-6.912 9.568-12.096 12.576-4.479 2.631-9.52 4.111-15.125 4.441 1.542.895 2.733 1.822 3.836 2.681 3.212 2.501 6.471 4.398 13.881 3.246 6.308-.712 12.4-3.289 16.896-7.872-.512 3.52-1.312 6.528-2.4 9.024-1.088 2.56-2.496 4.544-4.224 5.952-1.344 1.088-3.104 1.984-5.28 2.688-2.112.704-4.48 1.056-7.104 1.056-9.547 0-18.915-9.063-23.517-17.023Zm5.181-68.609c-3.584 0-6.72 1.44-9.408 4.32-2.624 2.88-4.672 6.848-6.144 11.904-1.408 5.056-2.112 10.912-2.112 17.568 0 6.784.8 12.704 2.4 17.76 1.664 4.992 3.872 8.864 6.624 11.616 2.816 2.688 5.92 4.032 9.312 4.032 3.584 0 6.688-1.44 9.312-4.32 2.688-2.88 4.736-6.848 6.144-11.904 1.472-5.12 2.208-10.976 2.208-17.568 0-6.848-.832-12.768-2.496-17.76-1.6-4.992-3.808-8.832-6.624-11.52-2.752-2.752-5.824-4.128-9.216-4.128Z"/><path fill="#A98B5D" d="M347.281 206.337c-4.563-.553-8.692-1.823-12.387-3.809-5.056-2.752-8.992-6.72-11.808-11.904-2.816-5.184-4.224-11.424-4.224-18.72 0-7.168 1.44-13.44 4.32-18.816 2.944-5.376 6.944-9.568 12-12.576 5.12-3.008 11.008-4.512 17.664-4.512 6.784 0 12.704 1.376 17.76 4.128 5.12 2.752 9.088 6.72 11.904 11.904 2.816 5.12 4.224 11.36 4.224 18.72 0 7.168-1.44 13.44-4.32 18.816-2.88 5.376-6.912 9.568-12.096 12.576-4.479 2.631-9.52 4.111-15.125 4.441 1.542.895 2.733 1.822 3.836 2.681 3.212 2.501 6.471 4.398 13.881 3.246 6.308-.712 12.4-3.289 16.896-7.872-.512 3.52-1.312 6.528-2.4 9.024-1.088 2.56-2.496 4.544-4.224 5.952-1.344 1.088-3.104 1.984-5.28 2.688-2.112.704-4.48 1.056-7.104 1.056-9.547 0-18.915-9.063-23.517-17.023Zm5.181-68.609c-3.584 0-6.72 1.44-9.408 4.32-2.624 2.88-4.672 6.848-6.144 11.904-1.408 5.056-2.112 10.912-2.112 17.568 0 6.784.8 12.704 2.4 17.76 1.664 4.992 3.872 8.864 6.624 11.616 2.816 2.688 5.92 4.032 9.312 4.032 3.584 0 6.688-1.44 9.312-4.32 2.688-2.88 4.736-6.848 6.144-11.904 1.472-5.12 2.208-10.976 2.208-17.568 0-6.848-.832-12.768-2.496-17.76-1.6-4.992-3.808-8.832-6.624-11.52-2.752-2.752-5.824-4.128-9.216-4.128Z"/><path fill="#fff" fill-rule="evenodd" d="m234.886 100-46.087-27.855V27.668l41.836 25.393.101-50.821 4.15-2.24v100Zm-52.887-76.46L143.214 0v100h4.151V47.103l34.634 20.932V23.541Z" clip-rule="evenodd"/><path fill="#fff" fill-rule="evenodd" d="m230.736 2.24 4.15-2.24h-4.251c-15.897 0-34.281 6.633-41.836 27.04 7.051-2.04 41.937-24.8 41.937-24.8Zm-83.472 95.52-4.15 2.24h4.251c15.896 0 33.878-6.865 41.434-27.273-7.052 2.04-41.535 25.033-41.535 25.033Z" clip-rule="evenodd"/><path fill="#A98B5D" fill-rule="evenodd" d="m230.736 2.24 4.15-2.24h-4.251c-15.897 0-34.281 6.633-41.836 27.04 7.051-2.04 41.937-24.8 41.937-24.8Zm-83.472 95.52-4.15 2.24h4.251c15.896 0 33.878-6.865 41.434-27.273-7.052 2.04-41.535 25.033-41.535 25.033Z" clip-rule="evenodd"/></svg>

<svg width="390" height="224" viewBox="0 0 390 224" fill="none" xmlns="http://www.w3.org/2000/svg">
<path d="M63.168 137.344V139.264C61.12 139.52 59.584 140.064 58.56 140.896C57.536 141.664 56.832 142.912 56.448 144.64C56.128 146.368 55.968 148.8 55.968 151.936V205.504C55.2 205.44 54.4 205.408 53.568 205.408C52.8 205.408 51.968 205.44 51.072 205.504L9.408 152.704V189.568C9.408 193.088 9.6 195.808 9.984 197.728C10.368 199.584 11.2 200.928 12.48 201.76C13.824 202.528 15.904 203.072 18.72 203.392V205.312C17.504 205.184 15.904 205.12 13.92 205.12C11.936 205.056 10.08 205.024 8.352 205.024C6.88 205.024 5.376 205.056 3.84 205.12C2.304 205.12 1.024 205.184 0 205.312V203.392C2.048 203.072 3.584 202.528 4.608 201.76C5.632 200.992 6.304 199.744 6.624 198.016C7.008 196.224 7.2 193.792 7.2 190.72V147.52C7.2 145.152 7.008 143.424 6.624 142.336C6.304 141.184 5.6 140.416 4.512 140.032C3.488 139.584 1.984 139.328 0 139.264V137.344C1.024 137.408 2.304 137.472 3.84 137.536C5.376 137.6 6.88 137.632 8.352 137.632C9.888 137.632 11.36 137.6 12.768 137.536C14.176 137.472 15.456 137.408 16.608 137.344L53.76 183.136V153.088C53.76 149.568 53.568 146.88 53.184 145.024C52.8 143.104 51.936 141.728 50.592 140.896C49.312 140.064 47.264 139.52 44.448 139.264V137.344C45.664 137.408 47.264 137.472 49.248 137.536C51.232 137.6 53.088 137.632 54.816 137.632C56.352 137.632 57.856 137.6 59.328 137.536C60.864 137.472 62.144 137.408 63.168 137.344Z" fill="white"/>
<path d="M100.031 137.152L123.358 197.248C124.254 199.552 125.247 201.152 126.335 202.048C127.487 202.88 128.511 203.328 129.407 203.392V205.312C127.487 205.184 125.215 205.12 122.591 205.12C120.031 205.056 117.438 205.024 114.814 205.024C111.87 205.024 109.087 205.056 106.463 205.12C103.839 205.12 101.759 205.184 100.223 205.312V203.392C103.487 203.264 105.535 202.72 106.367 201.76C107.263 200.736 107.071 198.592 105.791 195.328L89.4705 150.688L91.1985 148.192L76.6065 186.208C75.1985 189.728 74.3345 192.608 74.0145 194.848C73.7585 197.088 73.9185 198.816 74.4945 200.032C75.1345 201.248 76.1265 202.112 77.4705 202.624C78.8785 203.072 80.5425 203.328 82.4625 203.392V205.312C80.3505 205.184 78.3345 205.12 76.4145 205.12C74.4945 205.056 72.5425 205.024 70.5585 205.024C69.1505 205.024 67.8065 205.056 66.5265 205.12C65.3105 205.12 64.2225 205.184 63.2625 205.312V203.392C64.6065 203.136 65.9825 202.272 67.3905 200.8C68.7985 199.328 70.1745 196.832 71.5185 193.312L93.4065 137.152C94.4305 137.216 95.5185 137.248 96.6705 137.248C97.8865 137.248 99.0065 137.216 100.031 137.152ZM106.751 177.664V179.584H78.1425L79.1025 177.664H106.751Z" fill="white"/>
<path d="M130.123 137.344C131.723 137.408 133.867 137.472 136.555 137.536C139.307 137.6 142.027 137.632 144.715 137.632C147.787 137.632 150.763 137.6 153.643 137.536C156.523 137.472 158.571 137.44 159.787 137.44C165.739 137.44 170.667 138.112 174.571 139.456C178.539 140.736 181.483 142.624 183.403 145.12C185.387 147.616 186.379 150.624 186.379 154.144C186.379 156.32 185.931 158.528 185.035 160.768C184.139 162.944 182.603 164.992 180.427 166.912C178.315 168.768 175.403 170.272 171.691 171.424C167.979 172.512 163.307 173.056 157.675 173.056H148.459V171.136H156.715C160.491 171.136 163.339 170.432 165.259 169.024C167.243 167.552 168.587 165.632 169.291 163.264C170.059 160.832 170.443 158.144 170.443 155.2C170.443 150.144 169.547 146.24 167.755 143.488C165.963 140.672 162.891 139.264 158.539 139.264C156.043 139.264 154.411 139.808 153.643 140.896C152.939 141.984 152.587 144.192 152.587 147.52V195.136C152.587 197.44 152.747 199.168 153.067 200.32C153.451 201.472 154.155 202.24 155.179 202.624C156.203 203.008 157.739 203.264 159.787 203.392V205.312C158.059 205.184 155.883 205.12 153.259 205.12C150.635 205.056 147.979 205.024 145.291 205.024C142.219 205.024 139.307 205.056 136.555 205.12C133.867 205.12 131.723 205.184 130.123 205.312V203.392C132.171 203.264 133.707 203.008 134.731 202.624C135.755 202.24 136.427 201.472 136.747 200.32C137.131 199.168 137.323 197.44 137.323 195.136V147.52C137.323 145.152 137.131 143.424 136.747 142.336C136.427 141.184 135.723 140.416 134.635 140.032C133.611 139.584 132.107 139.328 130.123 139.264V137.344ZM148.267 171.424C151.019 171.488 153.387 171.616 155.371 171.808C157.419 172 159.211 172.192 160.747 172.384C162.283 172.512 163.659 172.608 164.875 172.672C170.699 173.184 174.987 174.432 177.739 176.416C180.555 178.4 182.379 181.376 183.211 185.344L185.419 195.232C185.995 197.792 186.603 199.584 187.243 200.608C187.883 201.632 188.811 202.144 190.027 202.144C190.859 202.08 191.531 201.888 192.043 201.568C192.619 201.184 193.227 200.64 193.867 199.936L195.211 201.088C193.483 203.072 191.627 204.48 189.643 205.312C187.659 206.208 185.259 206.656 182.443 206.656C178.987 206.656 176.139 205.92 173.899 204.448C171.659 202.976 170.187 200.256 169.483 196.288L167.755 186.688C167.307 184 166.763 181.664 166.123 179.68C165.483 177.632 164.587 176.032 163.435 174.88C162.347 173.664 160.811 173.056 158.827 173.056H148.459L148.267 171.424Z" fill="white"/>
<path d="M254.678 137.344C254.422 140.608 254.23 143.744 254.102 146.752C254.038 149.76 254.006 152.064 254.006 153.664C254.006 155.072 254.038 156.416 254.102 157.696C254.166 158.976 254.23 160.064 254.294 160.96H252.086C251.062 155.584 249.75 151.328 248.15 148.192C246.614 145.056 244.758 142.848 242.582 141.568C240.406 140.224 237.846 139.552 234.902 139.552H232.694V194.368C232.694 196.928 232.95 198.848 233.462 200.128C234.038 201.408 235.062 202.272 236.534 202.72C238.006 203.104 240.15 203.328 242.966 203.392V205.312C240.982 205.248 238.326 205.184 234.998 205.12C231.734 205.056 228.31 205.024 224.726 205.024C221.206 205.024 217.878 205.056 214.742 205.12C211.606 205.184 209.078 205.248 207.158 205.312V203.392C210.038 203.328 212.214 203.104 213.686 202.72C215.158 202.272 216.15 201.408 216.662 200.128C217.174 198.848 217.43 196.928 217.43 194.368V139.552H215.318C212.374 139.552 209.814 140.224 207.638 141.568C205.462 142.848 203.606 145.056 202.07 148.192C200.534 151.264 199.19 155.52 198.038 160.96H195.83C195.958 160.064 196.022 158.976 196.022 157.696C196.086 156.416 196.118 155.072 196.118 153.664C196.118 152.064 196.054 149.76 195.926 146.752C195.862 143.744 195.702 140.608 195.446 137.344C198.39 137.408 201.59 137.472 205.046 137.536C208.566 137.6 212.086 137.632 215.606 137.632C219.126 137.632 222.294 137.632 225.11 137.632C227.99 137.632 231.158 137.632 234.614 137.632C238.134 137.632 241.654 137.6 245.174 137.536C248.694 137.472 251.862 137.408 254.678 137.344Z" fill="white"/>
<path d="M286.968 137.152L310.296 197.248C311.192 199.552 312.184 201.152 313.272 202.048C314.424 202.88 315.448 203.328 316.344 203.392V205.312C314.424 205.184 312.152 205.12 309.528 205.12C306.968 205.056 304.376 205.024 301.752 205.024C298.808 205.024 296.024 205.056 293.4 205.12C290.776 205.12 288.696 205.184 287.16 205.312V203.392C290.424 203.264 292.472 202.72 293.304 201.76C294.2 200.736 294.008 198.592 292.728 195.328L276.408 150.688L278.136 148.192L263.544 186.208C262.136 189.728 261.272 192.608 260.952 194.848C260.696 197.088 260.856 198.816 261.432 200.032C262.072 201.248 263.064 202.112 264.408 202.624C265.816 203.072 267.48 203.328 269.4 203.392V205.312C267.288 205.184 265.272 205.12 263.352 205.12C261.432 205.056 259.48 205.024 257.496 205.024C256.088 205.024 254.744 205.056 253.464 205.12C252.248 205.12 251.16 205.184 250.2 205.312V203.392C251.544 203.136 252.92 202.272 254.328 200.8C255.736 199.328 257.112 196.832 258.456 193.312L280.344 137.152C281.368 137.216 282.456 137.248 283.608 137.248C284.824 137.248 285.944 137.216 286.968 137.152ZM293.688 177.664V179.584H265.08L266.04 177.664H293.688Z" fill="white"/>
<path d="M347.281 206.337C342.718 205.784 338.589 204.514 334.894 202.528C329.838 199.776 325.902 195.808 323.086 190.624C320.27 185.44 318.862 179.2 318.862 171.904C318.862 164.736 320.302 158.464 323.182 153.088C326.126 147.712 330.126 143.52 335.182 140.512C340.302 137.504 346.19 136 352.846 136C359.63 136 365.55 137.376 370.606 140.128C375.726 142.88 379.694 146.848 382.51 152.032C385.326 157.152 386.734 163.392 386.734 170.752C386.734 177.92 385.294 184.192 382.414 189.568C379.534 194.944 375.502 199.136 370.318 202.144C365.839 204.775 360.798 206.255 355.193 206.585C356.735 207.48 357.926 208.407 359.029 209.266C362.241 211.767 365.5 213.664 372.91 212.512C379.218 211.8 385.31 209.223 389.806 204.64C389.294 208.16 388.494 211.168 387.406 213.664C386.318 216.224 384.91 218.208 383.182 219.616C381.838 220.704 380.078 221.6 377.902 222.304C375.79 223.008 373.422 223.36 370.798 223.36C361.251 223.36 351.883 214.297 347.281 206.337ZM352.462 137.728C348.878 137.728 345.742 139.168 343.054 142.048C340.43 144.928 338.382 148.896 336.91 153.952C335.502 159.008 334.798 164.864 334.798 171.52C334.798 178.304 335.598 184.224 337.198 189.28C338.862 194.272 341.07 198.144 343.822 200.896C346.638 203.584 349.742 204.928 353.134 204.928C356.718 204.928 359.822 203.488 362.446 200.608C365.134 197.728 367.182 193.76 368.59 188.704C370.062 183.584 370.798 177.728 370.798 171.136C370.798 164.288 369.966 158.368 368.302 153.376C366.702 148.384 364.494 144.544 361.678 141.856C358.926 139.104 355.854 137.728 352.462 137.728Z" fill="white"/>
<path d="M347.281 206.337C342.718 205.784 338.589 204.514 334.894 202.528C329.838 199.776 325.902 195.808 323.086 190.624C320.27 185.44 318.862 179.2 318.862 171.904C318.862 164.736 320.302 158.464 323.182 153.088C326.126 147.712 330.126 143.52 335.182 140.512C340.302 137.504 346.19 136 352.846 136C359.63 136 365.55 137.376 370.606 140.128C375.726 142.88 379.694 146.848 382.51 152.032C385.326 157.152 386.734 163.392 386.734 170.752C386.734 177.92 385.294 184.192 382.414 189.568C379.534 194.944 375.502 199.136 370.318 202.144C365.839 204.775 360.798 206.255 355.193 206.585C356.735 207.48 357.926 208.407 359.029 209.266C362.241 211.767 365.5 213.664 372.91 212.512C379.218 211.8 385.31 209.223 389.806 204.64C389.294 208.16 388.494 211.168 387.406 213.664C386.318 216.224 384.91 218.208 383.182 219.616C381.838 220.704 380.078 221.6 377.902 222.304C375.79 223.008 373.422 223.36 370.798 223.36C361.251 223.36 351.883 214.297 347.281 206.337ZM352.462 137.728C348.878 137.728 345.742 139.168 343.054 142.048C340.43 144.928 338.382 148.896 336.91 153.952C335.502 159.008 334.798 164.864 334.798 171.52C334.798 178.304 335.598 184.224 337.198 189.28C338.862 194.272 341.07 198.144 343.822 200.896C346.638 203.584 349.742 204.928 353.134 204.928C356.718 204.928 359.822 203.488 362.446 200.608C365.134 197.728 367.182 193.76 368.59 188.704C370.062 183.584 370.798 177.728 370.798 171.136C370.798 164.288 369.966 158.368 368.302 153.376C366.702 148.384 364.494 144.544 361.678 141.856C358.926 139.104 355.854 137.728 352.462 137.728Z" fill="#A98B5D"/>
<path fill-rule="evenodd" clip-rule="evenodd" d="M234.886 99.9999L188.799 72.1448V27.668L230.635 53.0612L230.736 2.23965L234.886 1.63838e-06V99.9999ZM181.999 23.5407L143.214 6.39191e-05V100H147.365V47.1026L181.999 68.0351V23.5407Z" fill="white"/>
<path fill-rule="evenodd" clip-rule="evenodd" d="M230.736 2.23965L234.886 1.63838e-06C234.886 1.63838e-06 246.532 -5.31027e-06 230.635 9.41265e-06C214.738 2.41356e-05 196.354 6.63266 188.799 27.0408C195.85 25 230.736 2.23965 230.736 2.23965Z" fill="white"/>
<path fill-rule="evenodd" clip-rule="evenodd" d="M147.264 97.7603L143.114 100C143.114 100 131.468 100 147.365 100C163.261 100 181.243 93.1349 188.799 72.7268C181.747 74.7676 147.264 97.7603 147.264 97.7603Z" fill="white"/>
<path fill-rule="evenodd" clip-rule="evenodd" d="M230.736 2.23965L234.886 1.63838e-06C234.886 1.63838e-06 246.532 -5.31027e-06 230.635 9.41265e-06C214.738 2.41356e-05 196.354 6.63266 188.799 27.0408C195.85 25 230.736 2.23965 230.736 2.23965Z" fill="#A98B5D"/>
<path fill-rule="evenodd" clip-rule="evenodd" d="M147.264 97.7603L143.114 100C143.114 100 131.468 100 147.365 100C163.261 100 181.243 93.1349 188.799 72.7268C181.747 74.7676 147.264 97.7603 147.264 97.7603Z" fill="#A98B5D"/>
</svg>
